X: 26025
T: Mazurka Des Écoliers De Saint Genest
R: mazurka
M: 3/4
K: Dminor
|:D E>D|A2 A>B c>d|A2 A2 B>A|G2 A>G F>E|F2 D>D E>D|
A2 A>B c>d|A2 A2 B>A|G2 A>G F>E|E3:|
|:A d>c|B2 B>A B>c|d2 d2 c>B|A2 A>G A>B|A2 A>D d>c|
B3 A B>c|d2 d2 c>B|A2 A>F E>F|1 E3:|2 D3||

